!!!COM: Bartók, Béla
!!!OTL: Piano Sonata
!!!OMV: I: Allegro moderato
!!!example: 350
!!!work: Bar-30
**kern	**kern	**dynam
*grp:A	*grp:B	*grp:B
*part1	*part1	*part1
*staff2	*staff1	*S
*I"Piano	*	*
*I'Pno.	*	*
*clefF4	*clefG2	*
*k[]	*k[]	*
*C:	*C:	*
*M2/4	*M2/4	*
*MM123	*MM123	*
=22	=22	=22
*	*^	*
8GG#XL 8C#X 8D	4G [4g	8r	.
8DJ	.	8B 8c#X	.
8EE#XL 8AA#X 8D	16gLL]	8r	.
.	(16a	.	.
8DJ	16g	8B 8c#	.
.	16f#XJJ	.	.
=23	=23	=23	=23
8GG#XL 8C#X 8D	16gLL	8r	.
.	16f#XJJ)	.	.
8DJ	16r	8B 8c#X	.
.	(16a	.	.
8EE#XL 8AA#X 8D	16gLL	8r	.
.	16f#	.	.
8DJ	16g	8B 8c#	.
.	16f#JJ)	.	.
=24	=24	=24	=24
8GG#XL 8C#X 8D	16r	8r	.
.	(16gLL	.	.
8DJ	16f#XJJ)	8B 8c#X	.
.	16r	.	.
8EE#XL 8AA#X 8D	(16gLL	8r	.
.	16f#JJ)	.	.
8DJ	16r	8B 8c#	.
.	(16g	.	.
=25	=25	=25	=25
8GG#XL 8C#X 8D	16f#X)	8r	.
.	16r	.	.
8DJ	(16gLL	8B 8c#X	.
.	16f#JJ)	.	.
8EE#XL 8AA#X 8D	16r	8r	.
.	(16f#LL	.	.
8DJ	16g	8B 8c#	<
.	16aJJ	.	.
=26	=26	=26	=26
!!linebreak:original
8C#XL 8F#X 8Gn	16BLL 16b	8r	[
.	16cJJ) 16cc	.	.
8F#J 8G	4r	8e 8f#X	.
8AAA#XL 8FF#X 8GG	.	8r	.
8F#J 8G	(16bLL 16bb	8ee 8ff#X	.
.	16ccJJ) 16ccc	.	.
=27	=27	=27	=27
8C#XL 8F#X 8G	4r	8r	.
8F#J 8G	.	8e 8f#X	.
8AA#XL 8F# 8G	(16BLL 16b	8r	.
.	16cJJ) 16cc	.	.
8F#J 8G	8r	8e 8f#	.
=28	=28	=28	=28
8C#XL 8F#X 8G	8r	8r	.
8F#J 8G	(16bLL 16bb	8ee 8ff#X	.
.	16ccJJ) 16ccc	.	.
8AAA#XL 8FF#X 8GG	8r	8r	sf
8F#J 8G	(16BLL 16b	8e 8f#X	.
.	16cJJ) 16cc	.	.
*	*v	*v	*
=29	=29	=29
8C#XL 8F#X 8G	8r	.
8F#J 8G	(16BLL 16b	.
.	16cJJ 16cc	.
8AA#XL 8F# 8G	16dLL 16dd	.
.	16c 16cc	.
8F#J 8G	16d 16dd	.
.	16e-XJJ 16ee-X	.
=30	=30	=30
8C#XL 8F#X 8G	16dLL 16dd	.
.	16cJJ) 16cc	.
8F#J 8G	8r	.
8AAA#XL 8FF#X 8GG	4r	.
8GGJ 8E#X 8F#	.	sf
==	==	==
*-	*-	*-
!!!CDT: 1881/03/25-1945/09/26
!!!CBL: Sînnicolau Mare (Nagyszentmiklós), Romania (Hungary)
!!!CDL: New York, United States
!!!CNT: Hungarian
!!!AGN: Instrumental; Keyboard
!!!MCN:
!!!MDT: 1926/12/08
!!!MGN:
!!!MLC: Budapest, Hungary
!!!MPD: 1926
!!!MPN: Bartók, Béla
!!!ODT: 1926
!!!PDT: 1927
!!!excerpt-start-measure: 22
!!!excerpt-end-measure: 30
!!!excerpt-start-time: 0:23
!!!excerpt-end-time: 0:32
!!!system-decoration: {(s1,s2)}
!!!ONB: Converted from MusicXML on 2019/06/04 and edited by Craig Stuart Sapp
!!!EEV: 2019/10/08
